X: 516
T: Mai bianshi
L: 1/8
M: 2/4
K: F
d fc2 [I:setbarnb 1]| 
d fc2 | 
df2A | 
c4 | 
A c d f | 
c AG2 | 
A c/ c/ c D | 
F4 | 
A> G F G | 
A GA2 | 
A c/ c/ c D | 
F4 |]

@@@ Tune index: 9390
